public/img/StipendiumLargeCircleMobile.svg

<svg fill="none" height="606" viewBox="0 0 606 606" width="606" xmlns="http://www.w3.org/2000/svg"><path d="m542.629 76.8135c-80.312-47.1312-161.267-64.3313-244.008-66.413-74.12-1.86488-175.343-36.5761-241.8896 62.3134-33.5294 49.8251-61.21151 176.7991-51.90915 269.7521 6.31395 63.091 22.60225 116.071 47.14195 147.584 59.4958 76.403 138.1288 90.613 204.4588 103.309 73.463 14.062 154.692 19.718 225.645-33.206 29.641-22.109 57.754-55.947 83.514-96.34 11.676-18.308 29.903-45.186 35.312-78.302 10.424-63.804-20.292-153.838-38.667-193.09-26.595-56.812-57.673-84.435-92.694-93.4698" stroke="#30e1b9" stroke-linecap="round" stroke-linejoin="round" stroke-width="6"/></svg>

<svg width="606" height="606" viewBox="0 0 606 606" fill="none" xmlns="http://www.w3.org/2000/svg">
<path d="M542.629 76.8135C462.317 29.6823 381.362 12.4822 298.621 10.4005C224.501 8.53562 123.278 -26.1756 56.7314 72.7139C23.202 122.539 -4.48011 249.513 4.82225 342.466C11.1362 405.557 27.4245 458.537 51.9642 490.05C111.46 566.453 190.093 580.663 256.423 593.359C329.886 607.421 411.115 613.077 482.068 560.153C511.709 538.044 539.822 504.206 565.582 463.813C577.258 445.505 595.485 418.627 600.894 385.511C611.318 321.707 580.602 231.673 562.227 192.421C535.632 135.609 504.554 107.986 469.533 98.9512" stroke="#30E1B9" stroke-width="6" stroke-linecap="round" stroke-linejoin="round"/>
</svg>
